X:13
T:I'll Have a Wife of My Own. VWMLa.013
%%VWML:Anon2-3049-p10-0
F:http://www.vwml.org/record/Anon2/3049/p10
S:Anon. MS, late 18thC, Vaughan Williams Mem. Library
O:England;Yorkshire
Z:vmp/efdss.Simon Wilson. Reviewed PJH 2008.
M:9/8
L:1/8
Q:3/8=120
K:D
EFE G2B e3|EFE G2B AFD|\
EFE G2B d3|AFD D2B AFD:|
|:gbg faf e3|EFE G2A BGE|\
gbg faf d3|AFD D2B AFD:|
T:Berks of Abbergelede. VWMLa.014
T:Birks of Abergeldie,aka. VWMLa.014
R:Reel
S:Anon. MS, late 18thC, Vaughan Williams Mem. Library
N:Version in Aird is in Gmaj, and has 3 parts..
O:England;Yorkshire
Z:vmp/efdss.Simon Wilson. Reviewed PJH 2008.
M:C
L:1/8
Q:2/4=90
K:F
F2Ac f2ed|f2ed efga|\
F2Ac fgag|fdcA G2C2:|
|:FGAF cFAF|cFAF (d/c/B/A/)G2|\
F>GA>c fgag|fdcA G2C2:|
